X: 1
T: Tip Top Polka
M: 4/4
L: 1/8
S: lewesarmsfolkclub.org version 2011-2-4
K: G
|:\
"G"d2d2 dedc | B2B2 B2GA | B2B2 B2d2 | "Am"AGAB A3B |\
"Am"c2c2 cdcB | "D7"A2A2 A2G2 | FGAB cdef |1 "G"e2d2 d4 :|2 "G"g2g2 g4 :|
|:\
"C"g2e2 edef | "G"g2d2 d4 | "G"B2(3BcB A2G2 | "D7"e2d2 d2ef |\
"C"g2e2 edef | "G"g2d2 d4 | "Am"cBAB "D7"cdef | "G"g2g2 g4 :|
